.vercel/output/static/devicon/adplist.svg

<svg width="140" height="36" viewBox="0 0 140 36" fill="none" xmlns="http://www.w3.org/2000/svg">
<path d="M18 0C14.4399 0 10.9598 1.05568 7.99974 3.03355C5.03966 5.01141 2.73255 7.82263 1.37018 11.1117C0.00779912 14.4008 -0.348661 18.02 0.345873 21.5116C1.04041 25.0033 2.75474 28.2106 5.27208 30.7279C7.78943 33.2453 10.9967 34.9596 14.4884 35.6541C17.98 36.3487 21.5992 35.9922 24.8883 34.6298C28.1774 33.2674 30.9886 30.9603 32.9665 28.0003C34.9443 25.0402 36 21.5601 36 18C36 13.2261 34.1036 8.64773 30.7279 5.27208C27.3523 1.89642 22.7739 0 18 0ZM18 33.2308C14.9876 33.2308 12.0429 32.3375 9.53824 30.6639C7.03356 28.9903 5.08139 26.6116 3.92861 23.8286C2.77583 21.0455 2.47421 17.9831 3.06189 15.0286C3.64958 12.0741 5.10017 9.36028 7.23023 7.23022C9.36029 5.10016 12.0742 3.64957 15.0286 3.06188C17.9831 2.4742 21.0455 2.77582 23.8286 3.9286C26.6116 5.08138 28.9903 7.03355 30.6639 9.53824C32.3375 12.0429 33.2308 14.9876 33.2308 18C33.2308 22.0394 31.6261 25.9135 28.7698 28.7698C25.9135 31.6261 22.0395 33.2308 18 33.2308Z" fill="#05051B"/>
<path d="M10.7867 17.6398C10.9155 17.7696 11.0686 17.8726 11.2373 17.9429C11.4061 18.0132 11.587 18.0494 11.7698 18.0494C11.9526 18.0494 12.1336 18.0132 12.3023 17.9429C12.471 17.8726 12.6242 17.7696 12.7529 17.6398L16.0067 14.386C16.6182 13.7658 16.991 12.9497 17.0595 12.0815C17.1281 11.2134 16.888 10.3489 16.3815 9.64041C15.875 8.93197 15.1346 8.42508 14.2909 8.2091C13.4473 7.99313 12.5544 8.08192 11.7698 8.45984C10.984 8.0586 10.0803 7.9528 9.22302 8.16168C8.36578 8.37056 7.61201 8.88024 7.09885 9.59799C6.58569 10.3157 6.34725 11.1939 6.42691 12.0726C6.50657 12.9513 6.89903 13.7722 7.5329 14.386L10.7867 17.6398ZM9.48521 11.0768C9.56924 10.9888 9.67023 10.9188 9.78208 10.8709C9.89394 10.8231 10.0143 10.7984 10.136 10.7984C10.2576 10.7984 10.378 10.8231 10.4899 10.8709C10.6017 10.9188 10.7027 10.9888 10.7867 11.0768C10.9155 11.2065 11.0686 11.3095 11.2373 11.3798C11.4061 11.4501 11.587 11.4863 11.7698 11.4863C11.9526 11.4863 12.1336 11.4501 12.3023 11.3798C12.471 11.3095 12.6242 11.2065 12.7529 11.0768C12.8379 10.9905 12.9392 10.922 13.051 10.8753C13.1627 10.8286 13.2826 10.8045 13.4037 10.8045C13.5248 10.8045 13.6447 10.8286 13.7564 10.8753C13.8681 10.922 13.9694 10.9905 14.0544 11.0768C14.1424 11.1608 14.2124 11.2618 14.2602 11.3736C14.3081 11.4855 14.3327 11.6059 14.3327 11.7275C14.3327 11.8492 14.3081 11.9696 14.2602 12.0814C14.2124 12.1933 14.1424 12.2943 14.0544 12.3783L11.7698 14.7045L9.48521 12.4614C9.39724 12.3773 9.32723 12.2763 9.27939 12.1645C9.23156 12.0526 9.2069 11.9323 9.2069 11.8106C9.2069 11.689 9.23156 11.5686 9.27939 11.4567C9.32723 11.3449 9.39724 11.2439 9.48521 11.1598V11.0768Z" fill="#05051B"/>
<path d="M23.2484 17.6398C23.3771 17.7696 23.5303 17.8726 23.699 17.9429C23.8677 18.0132 24.0487 18.0494 24.2315 18.0494C24.4143 18.0494 24.5953 18.0132 24.764 17.9429C24.9327 17.8726 25.0858 17.7696 25.2146 17.6398L28.4684 14.386C29.0798 13.7658 29.4527 12.9497 29.5212 12.0815C29.5898 11.2134 29.3496 10.3489 28.8431 9.64041C28.3366 8.93197 27.5963 8.42508 26.7526 8.2091C25.9089 7.99313 25.0161 8.08192 24.2315 8.45984C23.4457 8.0586 22.5419 7.9528 21.6847 8.16168C20.8275 8.37056 20.0737 8.88024 19.5605 9.59799C19.0474 10.3157 18.8089 11.1939 18.8886 12.0726C18.9682 12.9513 19.3607 13.7722 19.9946 14.386L23.2484 17.6398ZM21.9469 11.0768C22.0309 10.9888 22.1319 10.9188 22.2438 10.8709C22.3556 10.8231 22.476 10.7984 22.5976 10.7984C22.7193 10.7984 22.8397 10.8231 22.9515 10.8709C23.0634 10.9188 23.1644 10.9888 23.2484 11.0768C23.3771 11.2065 23.5303 11.3095 23.699 11.3798C23.8677 11.4501 24.0487 11.4863 24.2315 11.4863C24.4143 11.4863 24.5953 11.4501 24.764 11.3798C24.9327 11.3095 25.0858 11.2065 25.2146 11.0768C25.2996 10.9905 25.4009 10.922 25.5126 10.8753C25.6243 10.8286 25.7442 10.8045 25.8653 10.8045C25.9864 10.8045 26.1063 10.8286 26.2181 10.8753C26.3298 10.922 26.4311 10.9905 26.5161 11.0768C26.6041 11.1608 26.6741 11.2618 26.7219 11.3736C26.7698 11.4855 26.7944 11.6059 26.7944 11.7275C26.7944 11.8492 26.7698 11.9696 26.7219 12.0814C26.6741 12.1933 26.6041 12.2943 26.5161 12.3783L24.2315 14.7045L21.9469 12.4614C21.8589 12.3773 21.7889 12.2763 21.7411 12.1645C21.6932 12.0526 21.6686 11.9323 21.6686 11.8106C21.6686 11.689 21.6932 11.5686 21.7411 11.4567C21.7889 11.3449 21.8589 11.2439 21.9469 11.1598V11.0768Z" fill="#05051B"/>
<path d="M27.6921 19.3845C27.3249 19.3845 26.9727 19.5304 26.713 19.7901C26.4533 20.0497 26.3075 20.4019 26.3075 20.7691C26.3075 24.5907 22.5828 27.6922 17.9998 27.6922C13.4167 27.6922 9.69208 24.5907 9.69208 20.7691C9.69208 20.4019 9.5462 20.0497 9.28654 19.7901C9.02687 19.5304 8.67469 19.3845 8.30747 19.3845C7.94024 19.3845 7.58806 19.5304 7.3284 19.7901C7.06873 20.0497 6.92285 20.4019 6.92285 20.7691C6.92285 26.1138 11.8936 30.4614 17.9998 30.4614C24.1059 30.4614 29.0767 26.1138 29.0767 20.7691C29.0767 20.4019 28.9308 20.0497 28.6712 19.7901C28.4115 19.5304 28.0593 19.3845 27.6921 19.3845Z" fill="#05051B"/>
<path d="M56.1503 23.6984H48.5509L46.9941 28.011H43.1416L50.3188 9.13662H54.5407L61.6651 28.011H57.7071L56.1503 23.6984ZM49.7647 20.3441H54.9365L52.3506 13.2097L49.7647 20.3441Z" fill="#05051B"/>
<path d="M70.6017 24.6035C71.3581 24.6035 72.0794 24.4881 72.7654 24.2574C73.4515 24.009 74.0496 23.6363 74.5597 23.1393C75.0699 22.6424 75.4745 22.0212 75.7735 21.2759C76.0726 20.5127 76.2221 19.6165 76.2221 18.5871C76.2221 17.5578 76.0726 16.6704 75.7735 15.925C75.4745 15.1619 75.0699 14.5318 74.5597 14.0349C74.0672 13.538 73.4779 13.1653 72.7918 12.9168C72.1058 12.6684 71.3845 12.5441 70.6281 12.5441H67.6992V24.6035H70.6017ZM64.0578 28.011V9.13662H70.76C72.097 9.13662 73.3283 9.34959 74.4542 9.77552C75.58 10.2015 76.5475 10.8226 77.3567 11.639C78.1835 12.4376 78.8256 13.4226 79.283 14.594C79.7579 15.7653 79.9954 17.0963 79.9954 18.5871C79.9954 20.0779 79.7579 21.409 79.283 22.5803C78.8256 23.7516 78.1835 24.7366 77.3567 25.5352C76.5299 26.3339 75.5536 26.9462 74.4278 27.3721C73.302 27.798 72.0706 28.011 70.7337 28.011H64.0578Z" fill="#05051B"/>
<path d="M89.696 17.7352C90.6108 17.7352 91.3232 17.4957 91.8333 17.0165C92.3611 16.5195 92.6249 15.8629 92.6249 15.0465C92.6249 14.1946 92.3611 13.5291 91.8333 13.0499C91.3232 12.5707 90.6108 12.3312 89.696 12.3312H86.8199V17.7352H89.696ZM86.7935 20.9032V28.011H83.1521V9.13662H90.1446C91.0593 9.13662 91.8949 9.28747 92.6513 9.58918C93.4077 9.87314 94.0586 10.2813 94.6039 10.8137C95.1493 11.3284 95.5627 11.9496 95.8441 12.6772C96.1432 13.3871 96.2927 14.168 96.2927 15.0199C96.2927 15.8718 96.1432 16.6615 95.8441 17.3892C95.5627 18.1168 95.1493 18.738 94.6039 19.2526C94.0586 19.7673 93.4077 20.1755 92.6513 20.4772C91.8949 20.7612 91.0593 20.9032 90.1446 20.9032H86.7935Z" fill="#05051B"/>
<path d="M99.0769 28.011V9.13662H102.718V24.497H111.056V28.011H99.0769Z" fill="#05051B"/>
<path d="M113.578 28.011V14.9134H117.088V28.011H113.578ZM113.156 10.6274C113.156 10.0062 113.367 9.48269 113.789 9.05676C114.212 8.63082 114.722 8.41785 115.32 8.41785C115.935 8.41785 116.446 8.63082 116.85 9.05676C117.272 9.48269 117.483 10.0062 117.483 10.6274C117.483 11.2131 117.272 11.7189 116.85 12.1448C116.446 12.5707 115.935 12.7837 115.32 12.7837C114.722 12.7837 114.212 12.5707 113.789 12.1448C113.367 11.7189 113.156 11.2131 113.156 10.6274Z" fill="#05051B"/>
<path d="M122.745 23.6984C122.78 24.2131 122.991 24.6745 123.378 25.0827C123.765 25.4909 124.346 25.695 125.12 25.695C125.7 25.695 126.131 25.5707 126.413 25.3223C126.694 25.0561 126.835 24.7455 126.835 24.3905C126.835 24.0888 126.729 23.8315 126.518 23.6185C126.307 23.3878 125.946 23.2192 125.436 23.1127L123.721 22.7134C122.454 22.4294 121.531 21.9414 120.95 21.2492C120.37 20.5393 120.08 19.723 120.08 18.8001C120.08 18.2144 120.203 17.6643 120.449 17.1496C120.695 16.6172 121.03 16.1646 121.452 15.7919C121.892 15.4015 122.402 15.0909 122.982 14.8602C123.58 14.6294 124.231 14.5141 124.935 14.5141C125.85 14.5141 126.624 14.6472 127.257 14.9134C127.89 15.1619 128.4 15.4813 128.787 15.8718C129.192 16.2622 129.491 16.6793 129.684 17.123C129.878 17.5489 129.992 17.9393 130.027 18.2943L127.099 18.9598C127.063 18.7646 127.002 18.5694 126.914 18.3742C126.843 18.1612 126.72 17.966 126.544 17.7885C126.369 17.611 126.149 17.469 125.885 17.3625C125.639 17.2561 125.331 17.2028 124.961 17.2028C124.504 17.2028 124.108 17.3271 123.774 17.5755C123.457 17.824 123.299 18.1346 123.299 18.5073C123.299 18.8267 123.404 19.084 123.616 19.2793C123.844 19.4745 124.134 19.6076 124.486 19.6786L126.333 20.0779C127.618 20.3441 128.576 20.841 129.21 21.5687C129.86 22.2963 130.186 23.1393 130.186 24.0977C130.186 24.6301 130.08 25.1537 129.869 25.6683C129.676 26.183 129.368 26.6445 128.946 27.0526C128.523 27.4608 127.996 27.7892 127.362 28.0376C126.729 28.2861 125.99 28.4103 125.146 28.4103C124.161 28.4103 123.334 28.2683 122.666 27.9844C121.997 27.7004 121.452 27.3543 121.03 26.9462C120.607 26.538 120.291 26.1032 120.08 25.6417C119.886 25.1625 119.772 24.7366 119.737 24.3639L122.745 23.6984Z" fill="#05051B"/>
<path d="M137.335 14.9134H139.947V18.0547H137.335V23.5387C137.335 24.1066 137.458 24.5059 137.704 24.7366C137.968 24.9496 138.355 25.0561 138.865 25.0561C139.076 25.0561 139.288 25.0472 139.499 25.0294C139.71 25.0117 139.859 24.9851 139.947 24.9496V27.8779C139.789 27.9489 139.543 28.0199 139.208 28.0909C138.892 28.1619 138.478 28.1973 137.968 28.1973C136.702 28.1973 135.699 27.8424 134.96 27.1325C134.221 26.4226 133.852 25.4288 133.852 24.1509V18.0547H131.504V14.9134H132.163C132.849 14.9134 133.351 14.7182 133.667 14.3277C134.001 13.9195 134.169 13.4226 134.169 12.837V11.0001H137.335V14.9134Z" fill="#05051B"/>
</svg>

<svg xmlns="http://www.w3.org/2000/svg" width="140" height="36" fill="none"><path fill="#05051B" d="M18 0a18 18 0 1 0 0 36 18 18 0 0 0 0-36Zm0 33.23a15.23 15.23 0 1 1 0-30.46 15.23 15.23 0 0 1 0 30.46Z"/><path fill="#05051B" d="M10.787 17.64a1.386 1.386 0 0 0 1.966 0l3.254-3.254A3.696 3.696 0 0 0 11.77 8.46a3.683 3.683 0 0 0-4.237 5.926l3.254 3.254Zm-1.302-6.563a.9.9 0 0 1 1.302 0 1.387 1.387 0 0 0 1.966 0 .911.911 0 0 1 1.301 0 .899.899 0 0 1 0 1.301l-2.284 2.326-2.285-2.243a.901.901 0 0 1 0-1.301v-.083Zm13.763 6.563a1.385 1.385 0 0 0 1.967 0l3.253-3.254a3.697 3.697 0 0 0-4.236-5.926 3.683 3.683 0 0 0-4.237 5.926l3.253 3.254Zm-1.301-6.563a.9.9 0 0 1 1.301 0 1.386 1.386 0 0 0 1.967 0 .912.912 0 0 1 1.301 0 .899.899 0 0 1 0 1.301l-2.284 2.326-2.285-2.243a.9.9 0 0 1 0-1.301v-.083Zm5.745 8.307a1.385 1.385 0 0 0-1.384 1.385c0 3.822-3.725 6.923-8.308 6.923s-8.308-3.101-8.308-6.923a1.384 1.384 0 1 0-2.77 0c0 5.345 4.972 9.692 11.078 9.692 6.106 0 11.077-4.347 11.077-9.692a1.385 1.385 0 0 0-1.385-1.384Zm28.458 4.314h-7.6l-1.556 4.313h-3.852l7.177-18.874h4.222l7.124 18.874h-3.958l-1.557-4.313Zm-6.385-3.354h5.172L52.35 13.21l-2.586 7.134Zm20.837 4.26c.756 0 1.477-.116 2.163-.347a4.957 4.957 0 0 0 1.795-1.118c.51-.497.915-1.118 1.213-1.863.3-.763.45-1.66.45-2.689 0-1.03-.15-1.917-.45-2.662-.298-.763-.703-1.393-1.213-1.89a4.712 4.712 0 0 0-1.768-1.118 6.306 6.306 0 0 0-2.164-.373H67.7v12.06h2.903Zm-6.544 3.407V9.137h6.702c1.337 0 2.568.213 3.694.639a8.03 8.03 0 0 1 2.903 1.863c.826.799 1.469 1.784 1.926 2.955.475 1.171.712 2.502.712 3.993 0 1.49-.237 2.822-.712 3.993-.457 1.172-1.1 2.157-1.926 2.955a8.481 8.481 0 0 1-2.93 1.837c-1.125.426-2.356.639-3.693.639h-6.676Zm25.638-10.276c.915 0 1.627-.24 2.137-.718.528-.497.792-1.154.792-1.97 0-.852-.264-1.518-.792-1.997-.51-.48-1.222-.719-2.137-.719H86.82v5.404h2.876Zm-2.903 3.168v7.108h-3.64V9.137h6.992c.914 0 1.75.15 2.506.452a5.548 5.548 0 0 1 1.953 1.225 5.008 5.008 0 0 1 1.24 1.863c.3.71.449 1.491.449 2.343 0 .852-.15 1.642-.449 2.37a5.007 5.007 0 0 1-1.24 1.863 6.104 6.104 0 0 1-1.953 1.224c-.756.284-1.592.426-2.506.426h-3.352Zm12.284 7.108V9.137h3.641v15.36h8.338v3.514h-11.98Zm14.501 0V14.913h3.51v13.098h-3.51Zm-.422-17.384c0-.62.211-1.144.633-1.57a2.079 2.079 0 0 1 1.531-.64c.615 0 1.126.214 1.53.64.422.426.633.95.633 1.57 0 .586-.211 1.092-.633 1.518-.404.426-.915.639-1.53.639a2.079 2.079 0 0 1-1.531-.64 2.082 2.082 0 0 1-.633-1.517Zm9.589 13.071c.035.515.246.976.633 1.385.387.408.968.612 1.742.612.58 0 1.011-.124 1.293-.373.281-.266.422-.576.422-.931 0-.302-.106-.56-.317-.772-.211-.231-.572-.4-1.082-.506l-1.715-.4c-1.267-.284-2.19-.772-2.771-1.464a3.76 3.76 0 0 1-.87-2.449c0-.586.123-1.136.369-1.65a4.06 4.06 0 0 1 1.003-1.358c.44-.39.95-.701 1.53-.932a5.379 5.379 0 0 1 1.953-.346c.915 0 1.689.133 2.322.4.633.248 1.143.567 1.53.958.405.39.704.807.897 1.251.194.426.308.816.343 1.171l-2.928.666a2.544 2.544 0 0 0-.185-.586 1.504 1.504 0 0 0-.37-.585 1.92 1.92 0 0 0-.659-.427c-.246-.106-.554-.16-.924-.16-.457 0-.853.125-1.187.373-.317.249-.475.56-.475.932 0 .32.105.577.317.772.228.195.518.329.87.4l1.847.399c1.285.266 2.243.763 2.877 1.49.65.728.976 1.571.976 2.53 0 .532-.106 1.056-.317 1.57a3.742 3.742 0 0 1-.923 1.385c-.423.408-.95.736-1.584.985-.633.248-1.372.372-2.216.372-.985 0-1.812-.142-2.48-.426-.669-.284-1.214-.63-1.636-1.038a4.313 4.313 0 0 1-.95-1.304c-.194-.48-.308-.905-.343-1.278l3.008-.666Zm14.59-8.785h2.612v3.142h-2.612v5.484c0 .568.123.967.369 1.198.264.213.651.32 1.161.32.211 0 .423-.01.634-.028.211-.017.36-.044.448-.08v2.929a3.921 3.921 0 0 1-.739.213c-.316.07-.73.106-1.24.106-1.266 0-2.269-.355-3.008-1.064-.739-.71-1.108-1.704-1.108-2.982v-6.096h-2.348v-3.142h.659c.686 0 1.188-.195 1.504-.585.334-.409.502-.905.502-1.491V11h3.166v3.913Z"/></svg>
